public/images/hashed/341877e774abf680688796abd0353710.svg

<svg xmlns="http://www.w3.org/2000/svg" width="80" height="80"><defs><linearGradient id="a" x1="0%" x2="100%" y1="100%" y2="0%"><stop offset="0%" stop-color="#1B660F"/><stop offset="100%" stop-color="#6CAE3E"/></linearGradient></defs><g fill="none" fill-rule="evenodd"><path fill="url(#a)" d="M0 0h80v80H0z"/><path fill="#FFF" d="M60 60c-1.654 0-3-1.346-3-3s1.346-3 3-3 3 1.346 3 3-1.346 3-3 3ZM28.912 47c-2.9-.003-5.291-2.109-5.443-4.794a6.862 6.862 0 0 1-.011-.384c0-3.458 2.486-4.619 4.004-5.005a1.003 1.003 0 0 0 .795-1.127 7.807 7.807 0 0 1-.056-.923c0-2.845 2.037-5.907 4.637-6.971 4.536-1.856 7.744.582 8.914 1.716.951.923 1.695 2.104 2.209 3.51a1.001 1.001 0 0 0 1.734.264c.706-.924 1.851-1.312 2.906-.99 1.272.389 2.065 1.661 2.174 3.49.028.453.356.831.801.921 3.239.652 4.882 2.391 4.882 5.168 0 4.625-3.89 5.125-5.562 5.125H28.912ZM42 60c0 1.654-1.346 3-3 3s-3-1.346-3-3 1.346-3 3-3 3 1.346 3 3Zm-22-1c-1.654 0-3-1.346-3-3s1.346-3 3-3 3 1.346 3 3-1.346 3-3 3Zm-1-39c0-1.654 1.346-3 3-3s3 1.346 3 3-1.346 3-3 3-3-1.346-3-3Zm36-3c1.654 0 3 1.346 3 3s-1.346 3-3 3-3-1.346-3-3 1.346-3 3-3Zm5 35c-.671 0-1.309.137-1.894.378l-2.975-4.379c1.916-1.043 3.327-2.971 3.327-6.124 0-3.533-2.04-5.983-5.766-6.962-.268-1.77-1.098-3.162-2.331-3.97l3.095-6.212c.489.16 1.002.269 1.544.269 2.757 0 5-2.243 5-5s-2.243-5-5-5-5 2.243-5 5c0 1.494.672 2.822 1.715 3.739l-3.236 6.495a4.593 4.593 0 0 0-3.223.748 10.783 10.783 0 0 0-2.111-2.906c-3.026-2.934-7.162-3.73-11.065-2.131-1.057.433-2.03 1.106-2.869 1.94l-3.547-4.51A4.962 4.962 0 0 0 27 20c0-2.757-2.243-5-5-5s-5 2.243-5 5 2.243 5 5 5c.73 0 1.419-.166 2.045-.448l3.864 4.912c-1.065 1.584-1.708 3.46-1.708 5.303 0 .112.002.226.006.34-2.991 1.048-4.749 3.505-4.749 6.715 0 .168.006.332.015.495.149 2.647 1.83 4.885 4.201 5.973l-3.336 3.317A4.934 4.934 0 0 0 20 51c-2.757 0-5 2.243-5 5s2.243 5 5 5 5-2.243 5-5c0-1.181-.429-2.253-1.116-3.109l3.989-3.968a7.9 7.9 0 0 0 1.038.077h11.226l-1.461 6.033C36.072 55.204 34 57.354 34 60c0 2.757 2.243 5 5 5s5-2.243 5-5c0-2.17-1.397-4.002-3.334-4.693L42.194 49h8.702c.773 0 1.556-.09 2.312-.271l3.237 4.762A4.986 4.986 0 0 0 55 57c0 2.757 2.243 5 5 5s5-2.243 5-5-2.243-5-5-5Z"/></g></svg>

<?xml version="1.0" encoding="UTF-8"?>
<svg width="80px" height="80px" viewBox="0 0 80 80" version="1.1" xmlns="http://www.w3.org/2000/svg" xmlns:xlink="http://www.w3.org/1999/xlink">
    <!-- Generator: Sketch 64 (93537) - https://sketch.com -->
    <title>Icon-Architecture/64/Arch_AWS-IoT-1-Click_64</title>
    <desc>Created with Sketch.</desc>
    <defs>
        <linearGradient x1="0%" y1="100%" x2="100%" y2="0%" id="linearGradient-1">
            <stop stop-color="#1B660F" offset="0%"></stop>
            <stop stop-color="#6CAE3E" offset="100%"></stop>
        </linearGradient>
    </defs>
    <g id="Icon-Architecture/64/Arch_AWS-IoT-1-Click_64" stroke="none" stroke-width="1" fill="none" fill-rule="evenodd">
        <g id="Icon-Architecture-BG/64/Internet-of-Things" fill="url(#linearGradient-1)">
            <rect id="Rectangle" x="0" y="0" width="80" height="80"></rect>
        </g>
        <path d="M60,60 C58.346,60 57,58.654 57,57 C57,55.346 58.346,54 60,54 C61.654,54 63,55.346 63,57 C63,58.654 61.654,60 60,60 L60,60 Z M28.912,47 C26.012,46.997 23.621,44.891 23.469,42.206 C23.462,42.081 23.458,41.953 23.458,41.822 C23.458,38.364 25.944,37.203 27.462,36.817 C27.924,36.726 28.268,36.317 28.268,35.834 C28.268,35.786 28.264,35.737 28.257,35.69 C28.221,35.387 28.201,35.08 28.201,34.767 C28.201,31.922 30.238,28.86 32.838,27.796 C37.374,25.94 40.582,28.378 41.752,29.512 C42.703,30.435 43.447,31.616 43.961,33.022 C44.087,33.365 44.389,33.612 44.75,33.667 C45.108,33.721 45.474,33.576 45.695,33.286 C46.401,32.362 47.546,31.974 48.601,32.296 C49.873,32.685 50.666,33.957 50.775,35.786 C50.803,36.239 51.131,36.617 51.576,36.707 C54.815,37.359 56.458,39.098 56.458,41.875 C56.458,46.5 52.568,47 50.896,47 L28.912,47 Z M42,60 C42,61.654 40.654,63 39,63 C37.346,63 36,61.654 36,60 C36,58.346 37.346,57 39,57 C40.654,57 42,58.346 42,60 L42,60 Z M20,59 C18.346,59 17,57.654 17,56 C17,54.346 18.346,53 20,53 C21.654,53 23,54.346 23,56 C23,57.654 21.654,59 20,59 L20,59 Z M19,20 C19,18.346 20.346,17 22,17 C23.654,17 25,18.346 25,20 C25,21.654 23.654,23 22,23 C20.346,23 19,21.654 19,20 L19,20 Z M55,17 C56.654,17 58,18.346 58,20 C58,21.654 56.654,23 55,23 C53.346,23 52,21.654 52,20 C52,18.346 53.346,17 55,17 L55,17 Z M60,52 C59.329,52 58.691,52.137 58.106,52.378 L55.131,47.999 C57.047,46.956 58.458,45.028 58.458,41.875 C58.458,38.342 56.418,35.892 52.692,34.913 C52.424,33.143 51.594,31.751 50.361,30.943 L53.456,24.731 C53.945,24.891 54.458,25 55,25 C57.757,25 60,22.757 60,20 C60,17.243 57.757,15 55,15 C52.243,15 50,17.243 50,20 C50,21.494 50.672,22.822 51.715,23.739 L48.479,30.234 C47.343,30.075 46.203,30.341 45.256,30.982 C44.695,29.868 43.988,28.895 43.145,28.076 C40.119,25.142 35.983,24.346 32.08,25.945 C31.023,26.378 30.05,27.051 29.211,27.885 L25.664,23.375 C26.486,22.484 27,21.305 27,20 C27,17.243 24.757,15 22,15 C19.243,15 17,17.243 17,20 C17,22.757 19.243,25 22,25 C22.73,25 23.419,24.834 24.045,24.552 L27.909,29.464 C26.844,31.048 26.201,32.924 26.201,34.767 C26.201,34.879 26.203,34.993 26.207,35.107 C23.216,36.155 21.458,38.612 21.458,41.822 C21.458,41.99 21.464,42.154 21.473,42.317 C21.622,44.964 23.303,47.202 25.674,48.29 L22.338,51.607 C21.637,51.232 20.849,51 20,51 C17.243,51 15,53.243 15,56 C15,58.757 17.243,61 20,61 C22.757,61 25,58.757 25,56 C25,54.819 24.571,53.747 23.884,52.891 L27.873,48.923 C28.213,48.968 28.559,49 28.911,49 L40.137,49 L38.676,55.033 C36.072,55.204 34,57.354 34,60 C34,62.757 36.243,65 39,65 C41.757,65 44,62.757 44,60 C44,57.83 42.603,55.998 40.666,55.307 L42.194,49 L50.896,49 C51.669,49 52.452,48.91 53.208,48.729 L56.445,53.491 C55.554,54.395 55,55.633 55,57 C55,59.757 57.243,62 60,62 C62.757,62 65,59.757 65,57 C65,54.243 62.757,52 60,52 L60,52 Z" id="AWS-IoT-1-Click_Icon_64_Squid" fill="#FFFFFF"></path>
    </g>
</svg>
